24x24/apps/crusader-kings-2.svg

<svg xmlns="http://www.w3.org/2000/svg" width="24" height="24" version="1.1">
 <path style="opacity:0.2;fill-rule:evenodd" d="M 12,1.5 C 9.0000005,2.4466148 5.9999995,3.3964605 3,4.3454996 3.2197504,11.391 4.89825,19.984846 12,22.5 19.1775,20.060769 20.695501,11.315077 21,4.3454996 18,3.3956535 15,2.4458074 12,1.5 Z"/>
 <path style="fill:#e6e6e6;fill-rule:evenodd" d="M 12,2.826529 C 9.46125,3.6086826 6.92325,4.3932015 4.3845,5.1769325 4.5705,10.996567 5.991,18.095086 12,20.173471 18.0735,18.158951 19.3575,10.934279 19.6155,5.1769325 17.07675,4.392413 14.53875,3.607894 12,2.826529"/>
 <path style="fill:#ff9744;fill-rule:evenodd" d="M 12,1 C 9.0000005,1.9466148 5.9999995,2.8964605 3,3.8454996 3.2197504,10.891 4.89825,19.484846 12,22 19.1775,19.560769 20.695501,10.815077 21,3.8454996 18,2.8956535 15,1.9458073 12,1 Z"/>
 <path style="fill:#ffd764;fill-rule:evenodd" d="M 12,1 C 9.0000005,1.9466148 5.9999995,2.8964605 3,3.8454996 3.2197504,10.891 4.89825,19.484846 12,22 Z"/>
 <path style="opacity:0.2;fill-rule:evenodd" d="m 12,3.5976563 c 2.284511,0.7206332 4.570053,1.4434852 6.855469,2.1669922 -0.210903,2.95857 -0.63199,6.0492815 -1.640625,8.6289065 -1.082177,2.767707 -2.682311,4.797861 -5.202148,5.893554 C 9.502443,19.163069 7.8738945,17.129056 6.776367,14.379883 5.750986,11.811427 5.3230935,8.733461 5.135742,5.767578 7.4243395,5.0434685 9.7123085,4.3198263 12,3.5976563 Z"/>
 <path style="fill:#f4f4f7;fill-rule:evenodd" d="m 12,3.0976563 c 2.284511,0.7206333 4.570053,1.4434852 6.855469,2.1669922 -0.210903,2.95857 -0.63199,6.0492815 -1.640625,8.6289065 -1.082177,2.767707 -2.682311,4.797861 -5.202148,5.893554 C 9.502443,18.663069 7.8738945,16.629056 6.776367,13.879883 5.750986,11.311427 5.3230935,8.233461 5.135742,5.267578 7.4243395,4.5434685 9.7123085,3.8198263 12,3.0976563 Z"/>
 <path style="fill:#ec3e3e" d="M 12 3.0976562 C 11.265082 3.3296526 10.529909 3.562655 9.7949219 3.7949219 L 11 5 L 11 9 L 7.0683594 9 L 6.75 9 L 5.3378906 7.5878906 C 5.4953909 8.9849596 5.7318366 10.366165 6.0722656 11.677734 L 6.75 11 L 7.0683594 11 L 11 11 L 11 18 L 10.253906 18.746094 C 10.520416 18.94802 10.798826 19.136995 11.091797 19.310547 C 11.384768 19.484099 11.6923 19.643206 12.013672 19.787109 C 12.333809 19.647905 12.636748 19.493552 12.927734 19.324219 C 12.929001 19.323484 12.930375 19.323 12.931641 19.322266 C 12.959084 19.306277 12.982571 19.285781 13.009766 19.269531 C 13.270469 19.113758 13.524915 18.950586 13.763672 18.771484 C 13.765144 18.77038 13.766106 18.768684 13.767578 18.767578 L 13 18 L 13 11 L 16.917969 11 L 17.25 11 L 17.912109 11.662109 C 18.242452 10.362174 18.474024 8.9946149 18.634766 7.6152344 L 17.25 9 L 16.917969 9 L 13 9 L 13 5 L 14.205078 3.7949219 C 13.470091 3.5627234 12.734812 3.3294477 12 3.0976562 z"/>
 <path style="opacity:0.2;fill:#f4f4f7;fill-rule:evenodd" d="M 12,1 C 9.000001,1.9466148 5.9999995,2.896664 3,3.8457031 3.0050662,4.008131 3.014819,4.1748869 3.0214844,4.3388672 6.0143185,3.392091 9.0071665,2.4443538 12,1.5 14.991168,2.4430228 17.982465,3.3898644 20.973633,4.336914 20.982044,4.1736521 20.992946,4.0071592 21,3.8457031 18,2.895857 15,1.9458073 12,1 Z"/>
</svg>

<svg xmlns="http://www.w3.org/2000/svg" width="24" height="24"><path style="opacity:.2;fill-rule:evenodd" d="M12 1.5c-3 .947-6 1.896-9 2.845.22 7.046 1.898 15.64 9 18.155 7.177-2.44 8.696-11.185 9-18.155-3-.95-6-1.9-9-2.845z"/><path style="fill:#e6e6e6;fill-rule:evenodd" d="M12 2.827c-2.539.782-5.077 1.566-7.615 2.35C4.57 10.997 5.99 18.095 12 20.173c6.073-2.014 7.358-9.239 7.616-14.996-2.54-.785-5.077-1.57-7.616-2.35"/><path style="fill:#ff9744;fill-rule:evenodd" d="M12 1c-3 .947-6 1.896-9 2.845.22 7.046 1.898 15.64 9 18.155 7.177-2.44 8.696-11.185 9-18.155-3-.95-6-1.9-9-2.845z"/><path style="fill:#ffd764;fill-rule:evenodd" d="M12 1c-3 .947-6 1.896-9 2.845.22 7.046 1.898 15.64 9 18.155z"/><path style="opacity:.2;fill-rule:evenodd" d="M12 3.598c2.285.72 4.57 1.443 6.855 2.167-.21 2.958-.632 6.049-1.64 8.629-1.082 2.767-2.682 4.797-5.202 5.893-2.51-1.124-4.14-3.158-5.237-5.907-1.025-2.569-1.453-5.647-1.64-8.612C7.424 5.043 9.712 4.32 12 3.598z"/><path style="fill:#f4f4f7;fill-rule:evenodd" d="M12 3.098c2.285.72 4.57 1.443 6.855 2.167-.21 2.958-.632 6.049-1.64 8.629-1.082 2.767-2.682 4.797-5.202 5.893-2.51-1.124-4.14-3.158-5.237-5.907-1.025-2.569-1.453-5.647-1.64-8.612C7.424 4.543 9.712 3.82 12 3.098z"/><path style="fill:#ec3e3e" d="m12 3.098-2.205.697L11 5v4H6.75L5.338 7.588c.157 1.397.394 2.778.734 4.09L6.75 11H11v7l-.746.746a8.886 8.886 0 0 0 1.76 1.041c.32-.14.623-.293.914-.463l.004-.002c.027-.016.05-.036.078-.052.26-.156.515-.32.754-.499l.004-.003L13 18v-7h4.25l.662.662c.33-1.3.562-2.667.723-4.047L17.25 9H13V5l1.205-1.205c-.735-.232-1.47-.466-2.205-.697z"/><path style="opacity:.2;fill:#f4f4f7;fill-rule:evenodd" d="M12 1c-3 .947-6 1.897-9 2.846.005.162.015.329.021.493C6.014 3.392 9.007 2.444 12 1.5c2.991.943 5.982 1.89 8.974 2.837.008-.163.019-.33.026-.491-3-.95-6-1.9-9-2.846z"/></svg>
